Yaru++/apps/scalable/com.github.kjlaw89.webwatcher.svg

<svg height="256" width="256" xmlns="http://www.w3.org/2000/svg" xmlns:xlink="http://www.w3.org/1999/xlink">
  <linearGradient id="linearGradient1694" gradientTransform="matrix(0 -1 1 0 -28.11889 279.17177)" gradientUnits="userSpaceOnUse" x1="39.997" x2="263.997" y1="156" y2="156">
    <stop offset="0" stop-color="#f7f7f7"/>
    <stop offset="1" stop-color="#e6e6e6"/>
  </linearGradient>
  <linearGradient id="linearGradient4358" gradientUnits="userSpaceOnUse" x1="88" x2="488" y1="88" y2="488">
    <stop offset="0" stop-opacity=".588235"/>
    <stop offset="1" stop-opacity=".205556"/>
  </linearGradient>
  <filter id="filter4380" color-interpolation-filters="sRGB" height="1.088" width="1.106" x="-.05" y="-.04">
    <feGaussianBlur stdDeviation="8.48"/>
  </filter>
  <filter id="filter4346" color-interpolation-filters="sRGB" height="1.022" width="1.026" x="-.01" y="-.01">
    <feGaussianBlur stdDeviation="2.12"/>
  </filter>
  <path d="m141.84323 74c-70.59344 0-78.18921 7.250835-77.84323 77.98706v146.01294 146.01294c-.34598 70.73623 7.24979 77.98706 77.84323 77.98706h292.31354c70.59344 0 79.78033-7.27652 77.84323-77.98706v-146.01294-146.01294c0-70.737067-7.24979-77.98706-77.84323-77.98706z" filter="url(#filter4346)" opacity=".1" transform="matrix(.5 0 0 .5 -16.116488 -20.825537)"/>
  <path d="m141.84323 74c-70.59344 0-78.18921 7.250835-77.84323 77.98706v146.01294 146.01294c-.34598 70.73623 7.24979 77.98706 77.84323 77.98706h292.31354c70.59344 0 79.78033-7.27652 77.84323-77.98706v-146.01294-146.01294c0-70.737067-7.24979-77.98706-77.84323-77.98706z" fill="url(#linearGradient4358)" filter="url(#filter4380)" opacity=".3" transform="matrix(.5 0 0 .5 -16.116488 -20.825235)"/>
  <path d="m53.695112 13.174463c-36.098811 0-39.983002 3.69016-39.80608 39.68984v74.310167 74.31016c-.176922 35.99969 3.707269 39.68984 39.80608 39.68984h148.387318c36.09881 0 40.77464-3.70276 39.80608-39.68984v-74.31016-74.310167c0-36.00011-3.70727-39.68984-39.80608-39.68984z" opacity=".1"/>
  <path d="m54.805134 239.17447c-35.29673 0-39.09461-3.62542-38.92162-38.99353v-73.00647-73.006479c-.17299-35.36812 3.62489-38.99353 38.92162-38.99353h146.156756c35.29671 0 38.92161 3.625 38.92161 38.99353v73.006479 73.00647c0 35.36853-3.6249 38.99353-38.92161 38.99353z" fill="url(#linearGradient1694)"/>
  <path d="m54.805392 15.174463c-35.296728 0-39.09487 3.62603-38.92188 38.99414v2c-.17299-35.36811 3.625152-38.99414 38.92188-38.99414h146.156238c35.29673 0 38.92188 3.62561 38.92188 38.99414v-2c0-35.36853-3.62515-38.99414-38.92188-38.99414z" fill="#fff" opacity=".3"/>
  <path d="m54.810792 239.17447c-35.296731 0-39.094875-3.62603-38.921885-38.99414v-2c-.17299 35.36811 3.625154 38.99414 38.921885 38.99414h146.156238c35.29673 0 38.92188-3.62561 38.92188-38.99414v2c0 35.36853-3.62515 38.99414-38.92188 38.99414z" opacity=".2"/>
  <g fill="#b3b3b3" transform="translate(.028093 3.999997)">
    <rect height="32" rx="7" width="180" x="37.88" y="51.17"/>
    <g transform="matrix(-1 0 0 1 255.70543 0)">
      <rect height="32" rx="7" width="91.586" x="126.3" y="115.17"/>
      <rect height="32" rx="7" width="91.586" x="126.3" y="163.17"/>
    </g>
  </g>
  <g transform="matrix(1.9039548 0 0 1.9039548 109.12542 4.827119)">
    <path d="m58.8 80c0 11.83-9.14 21.44-20.4 21.44s-20.4-9.61-20.4-21.44 9.14-21.44 20.4-21.44 20.4 9.61 20.4 21.44z" fill="#c6262e"/>
    <path d="m56.76 80c0 10.6-8.23 19.21-18.36 19.21s-18.36-8.61-18.36-19.21 8.23-19.21 18.36-19.21 18.36 8.61 18.36 19.21z" fill="#f1f1f1"/>
    <path d="m39.89 80.54c0 1.07-.87 1.94-1.94 1.94-1.08 0-1.95-.87-1.95-1.94 0-1.08.87-1.95 1.95-1.95 1.07 0 1.94.87 1.94 1.95z" fill="#c6262e"/>
    <path d="m38.03 67c.62 0 1.11.51 1.11 1.12-.01 2.39-.03 8.42-.05 10.8 0 .62-.5 1.12-1.12 1.12-.22 0 .23 0 0 0-.62-.01-1.11-.51-1.11-1.13.01-2.38.03-8.41.05-10.8 0-.61.5-1.11 1.12-1.11z" fill="#c6262e"/>
    <path d="m49 80.53c0 .59-.48 1.07-1.07 1.07-2.09 0-7.29 0-9.38 0-.59 0-1.07-.48-1.07-1.07 0-.23 0 .14 0-.09 0-.59.48-1.07 1.07-1.07h9.38c.59 0 1.07.48 1.07 1.07z" fill="#c6262e"/>
  </g>
</svg>

<?xml version="1.0" encoding="UTF-8" standalone="no"?>
<svg
   xmlns:osb="http://www.openswatchbook.org/uri/2009/osb"
   xmlns:dc="http://purl.org/dc/elements/1.1/"
   xmlns:cc="http://creativecommons.org/ns#"
   xmlns:rdf="http://www.w3.org/1999/02/22-rdf-syntax-ns#"
   xmlns:svg="http://www.w3.org/2000/svg"
   xmlns="http://www.w3.org/2000/svg"
   xmlns:xlink="http://www.w3.org/1999/xlink"
   xmlns:sodipodi="http://sodipodi.sourceforge.net/DTD/sodipodi-0.dtd"
   xmlns:inkscape="http://www.inkscape.org/namespaces/inkscape"
   width="256"
   height="256"
   version="1.1"
   id="svg65"
   sodipodi:docname="99.svg"
   inkscape:version="0.92.4 (5da689c313, 2019-01-14)">
  <metadata
     id="metadata69">
    <rdf:RDF>
      <cc:Work
         rdf:about="">
        <dc:format>image/svg+xml</dc:format>
        <dc:type
           rdf:resource="http://purl.org/dc/dcmitype/StillImage" />
        <dc:title></dc:title>
      </cc:Work>
    </rdf:RDF>
  </metadata>
  <sodipodi:namedview
     pagecolor="#ffffff"
     bordercolor="#666666"
     borderopacity="1"
     objecttolerance="10"
     gridtolerance="10"
     guidetolerance="10"
     inkscape:pageopacity="0"
     inkscape:pageshadow="2"
     inkscape:window-width="1920"
     inkscape:window-height="1016"
     id="namedview67"
     showgrid="false"
     inkscape:zoom="0.921875"
     inkscape:cx="-78.101695"
     inkscape:cy="128"
     inkscape:window-x="0"
     inkscape:window-y="27"
     inkscape:window-maximized="1"
     inkscape:current-layer="g61" />
  <defs
     id="defs25">
    <linearGradient
       id="linearGradient5606"
       osb:paint="solid">
      <stop
         id="stop5608"
         offset="0"
         style="stop-color:#000000" />
    </linearGradient>
    <linearGradient
       id="linearGradient4526"
       osb:paint="solid">
      <stop
         id="stop4528"
         offset="0"
         style="stop-color:#ffffff" />
    </linearGradient>
    <linearGradient
       id="linearGradient3600-4"
       osb:paint="gradient">
      <stop
         id="stop3602-7"
         offset="0"
         style="stop-color:#f4f4f4" />
      <stop
         id="stop3604-6"
         offset="1"
         style="stop-color:#dbdbdb" />
    </linearGradient>
    <linearGradient
       id="linearGradient1694"
       x1="39.997"
       x2="263.997"
       y1="156"
       y2="156"
       gradientTransform="rotate(-90,125.52644,153.64533)"
       gradientUnits="userSpaceOnUse"
       xlink:href="#linearGradient3797-5" />
    <linearGradient
       id="linearGradient3797-5">
      <stop
         id="stop3801"
         offset="0"
         style="stop-color:#f7f7f7" />
      <stop
         id="stop3799"
         offset="1"
         style="stop-color:#e6e6e6" />
    </linearGradient>
    <linearGradient
       id="linearGradient4358"
       x1="88"
       x2="488"
       y1="88"
       y2="488"
       gradientUnits="userSpaceOnUse"
       xlink:href="#linearGradient4360" />
    <linearGradient
       id="linearGradient4360">
      <stop
         id="stop4362"
         offset="0"
         style="stop-color:#000000;stop-opacity:0.58823532" />
      <stop
         id="stop4366"
         offset="1"
         style="stop-color:#000000;stop-opacity:0.20555556" />
    </linearGradient>
    <filter
       style="color-interpolation-filters:sRGB"
       id="filter4380"
       width="1.106"
       height="1.088"
       x="-.05"
       y="-.04">
      <feGaussianBlur
         id="feGaussianBlur4382"
         stdDeviation="8.48" />
    </filter>
    <filter
       style="color-interpolation-filters:sRGB"
       id="filter4346"
       width="1.026"
       height="1.022"
       x="-.01"
       y="-.01">
      <feGaussianBlur
         id="feGaussianBlur4348"
         stdDeviation="2.12" />
    </filter>
    <filter
       style="color-interpolation-filters:sRGB"
       id="filter1502"
       width="1.109"
       height="1.136"
       x="-.05"
       y="-.07">
      <feGaussianBlur
         id="feGaussianBlur1504"
         stdDeviation="1.36" />
    </filter>
    <filter
       style="color-interpolation-filters:sRGB"
       id="filter1498"
       width="1.109"
       height="1.136"
       x="-.05"
       y="-.07">
      <feGaussianBlur
         id="feGaussianBlur1500"
         stdDeviation="1.36" />
    </filter>
  </defs>
  <path
     style="opacity:0.1;filter:url(#filter4346)"
     d="M 141.84323,74 C 71.24979,74 63.65402,81.250835 64,151.98706 V 298 444.01294 C 63.65402,514.74917 71.24979,522 141.84323,522 H 434.15677 C 504.75021,522 513.9371,514.72348 512,444.01294 V 298 151.98706 C 512,81.249993 504.75021,74 434.15677,74 Z"
     transform="matrix(0.5,0,0,0.5,-16.116488,-20.825537)"
     id="path27" />
  <path
     d="M 141.84323,74 C 71.24979,74 63.65402,81.250835 64,151.98706 V 298 444.01294 C 63.65402,514.74917 71.24979,522 141.84323,522 H 434.15677 C 504.75021,522 513.9371,514.72348 512,444.01294 V 298 151.98706 C 512,81.249993 504.75021,74 434.15677,74 Z"
     transform="matrix(0.5,0,0,0.5,-16.116488,-20.825235)"
     style="opacity:0.3;fill:url(#linearGradient4358);filter:url(#filter4380)"
     id="path29" />
  <path
     style="opacity:0.1"
     d="m 53.695112,13.174463 c -36.098811,0 -39.983002,3.69016 -39.80608,39.68984 v 74.310167 74.31016 c -0.176922,35.99969 3.707269,39.68984 39.80608,39.68984 H 202.08243 c 36.09881,0 40.77464,-3.70276 39.80608,-39.68984 V 127.17447 52.864303 c 0,-36.00011 -3.70727,-39.68984 -39.80608,-39.68984 z"
     id="path31" />
  <path
     style="fill:url(#linearGradient1694)"
     d="m 54.805134,239.17447 c -35.29673,0 -39.09461,-3.62542 -38.92162,-38.99353 V 127.17447 54.167991 c -0.17299,-35.36812 3.62489,-38.99353 38.92162,-38.99353 H 200.96189 c 35.29671,0 38.92161,3.625 38.92161,38.99353 v 73.006479 73.00647 c 0,35.36853 -3.6249,38.99353 -38.92161,38.99353 z"
     id="path33" />
  <path
     style="opacity:0.3;fill:#ffffff"
     d="m 54.805392,15.174463 c -35.296728,0 -39.09487,3.62603 -38.92188,38.99414 v 2 c -0.17299,-35.36811 3.625152,-38.99414 38.92188,-38.99414 H 200.96163 c 35.29673,0 38.92188,3.62561 38.92188,38.99414 v -2 c 0,-35.36853 -3.62515,-38.99414 -38.92188,-38.99414 z"
     id="path35" />
  <path
     style="opacity:0.2"
     d="m 54.810792,239.17447 c -35.296731,0 -39.094875,-3.62603 -38.921885,-38.99414 v -2 c -0.17299,35.36811 3.625154,38.99414 38.921885,38.99414 H 200.96703 c 35.29673,0 38.92188,-3.62561 38.92188,-38.99414 v 2 c 0,35.36853 -3.62515,38.99414 -38.92188,38.99414 z"
     id="path37" />
  <g
     transform="translate(0.02809272,3.9999965)"
     id="g63">
    <g
       id="g61">
      <rect
         width="180"
         height="32"
         x="37.88"
         y="51.17"
         rx="7"
         ry="7"
         style="fill:#b3b3b3;fill-opacity:1"
         id="rect39" />
      <g
         transform="matrix(-1,0,0,1,255.70543,0)"
         id="g59">
        <rect
           width="91.586"
           height="32"
           x="126.3"
           y="115.17"
           rx="7"
           ry="7"
           style="fill:#b3b3b3"
           id="rect41" />
        <rect
           style="fill:#b3b3b3"
           width="91.586"
           height="32"
           x="126.3"
           y="163.17"
           rx="7"
           ry="7"
           id="rect57" />
      </g>
    </g>
  </g>
  <g
     transform="matrix(1.9039548,0,0,1.9039548,109.12542,4.8271191)"
     style="isolation:isolate"
     id="g4808">
    <path
       style="fill:#c6262e"
       inkscape:connector-curvature="0"
       d="m 58.8,80 c 0,11.83 -9.14,21.44 -20.4,21.44 C 27.14,101.44 18,91.83 18,80 18,68.17 27.14,58.56 38.4,58.56 c 11.26,0 20.4,9.61 20.4,21.44 z"
       id="path39" />
  </g>
  <g
     transform="matrix(1.9039548,0,0,1.9039548,109.12542,4.8271191)"
     style="isolation:isolate;fill:#f1f1f1;fill-opacity:1"
     id="g4812">
    <path
       style="fill:#f1f1f1;fill-opacity:1"
       inkscape:connector-curvature="0"
       d="M 56.76,80 C 56.76,90.6 48.53,99.21 38.4,99.21 28.27,99.21 20.04,90.6 20.04,80 20.04,69.4 28.27,60.79 38.4,60.79 48.53,60.79 56.76,69.4 56.76,80 Z"
       id="path42" />
  </g>
  <g
     transform="matrix(1.9039548,0,0,1.9039548,109.12542,4.8271191)"
     style="isolation:isolate"
     id="g4828">
    <path
       style="fill:#c6262e"
       inkscape:connector-curvature="0"
       d="m 39.89,80.54 c 0,1.07 -0.87,1.94 -1.94,1.94 -1.08,0 -1.95,-0.87 -1.95,-1.94 0,-1.08 0.87,-1.95 1.95,-1.95 1.07,0 1.94,0.87 1.94,1.95 z"
       id="path54" />
  </g>
  <g
     transform="matrix(1.9039548,0,0,1.9039548,109.12542,4.8271191)"
     style="isolation:isolate"
     id="g4832">
    <path
       style="fill:#c6262e"
       inkscape:connector-curvature="0"
       d="m 38.03,67 c 0.62,0 1.11,0.51 1.11,1.12 -0.01,2.39 -0.03,8.42 -0.05,10.8 0,0.62 -0.5,1.12 -1.12,1.12 -0.22,0 0.23,0 0,0 -0.62,-0.01 -1.11,-0.51 -1.11,-1.13 0.01,-2.38 0.03,-8.41 0.05,-10.8 0,-0.61 0.5,-1.11 1.12,-1.11 0.22,0 -0.23,0 0,0 z"
       id="path57" />
  </g>
  <g
     transform="matrix(1.9039548,0,0,1.9039548,109.12542,4.8271191)"
     style="isolation:isolate"
     id="g4836">
    <path
       style="fill:#c6262e"
       inkscape:connector-curvature="0"
       d="m 49,80.53 c 0,0.59 -0.48,1.07 -1.07,1.07 -2.09,0 -7.29,0 -9.38,0 -0.59,0 -1.07,-0.48 -1.07,-1.07 0,-0.23 0,0.14 0,-0.09 0,-0.59 0.48,-1.07 1.07,-1.07 2.09,0 7.29,0 9.38,0 0.59,0 1.07,0.48 1.07,1.07 0,0.23 0,-0.14 0,0.09 z"
       id="path60" />
  </g>
</svg>
